example/source/map.svg

<svg xmlns="http://www.w3.org/2000/svg" xmlns:xlink="http://www.w3.org/1999/xlink" width="24" height="34"><image overflow="visible" opacity=".33" enable-background="new" width="27" height="36" xlink:href="3B98E278.png"/><linearGradient id="a" gradientUnits="userSpaceOnUse" x1="13.834" y1="3.242" x2="13.834" y2="31.241" gradientTransform="matrix(1 0 0 -1 0 35)"><stop offset="0" stop-color="#0071BC"/><stop offset="1" stop-color="#009DDC"/></linearGradient><path fill="url(#a)" d="M23.007 14.786c.103-.551.161-1.113.161-1.693 0-5.152-4.177-9.334-9.332-9.334-5.159 0-9.337 4.182-9.337 9.334 0 .658.069 1.301.197 1.914.4 1.912.617 2.326 1.992 4.896l7.184 11.856 6.478-11.221c1.236-2.008 2.25-3.658 2.657-5.752m-9.176 1.488c-1.863 0-3.377-1.51-3.377-3.381 0-1.865 1.514-3.377 3.377-3.377 1.868 0 3.383 1.512 3.383 3.377 0 1.872-1.515 3.381-3.383 3.381z"/><path fill="#fff" d="M13.883 32.741l-7.622-12.581c-1.388-2.592-1.636-3.054-2.054-5.051-.139-.661-.208-1.34-.208-2.017 0-5.423 4.412-9.834 9.837-9.834 5.422 0 9.832 4.411 9.832 9.834 0 .579-.055 1.162-.169 1.784-.426 2.188-1.49 3.919-2.724 5.923m-6.939-16.54c-4.873 0-8.837 3.963-8.837 8.834 0 .608.062 1.218.187 1.812.389 1.855.596 2.244 1.943 4.761l6.732 11.111 6.057-10.488c1.236-2.014 2.209-3.593 2.598-5.598.104-.557.152-1.08.152-1.598 0-4.871-3.962-8.834-8.832-8.834zm-.005 12.515c-2.138 0-3.877-1.741-3.877-3.881 0-2.138 1.739-3.877 3.877-3.877 2.142 0 3.883 1.739 3.883 3.877 0 2.14-1.741 3.881-3.883 3.881zm0-6.757c-1.586 0-2.877 1.291-2.877 2.877 0 1.589 1.291 2.881 2.877 2.881 1.59 0 2.883-1.292 2.883-2.881 0-1.586-1.293-2.877-2.883-2.877z"/></svg>

<?xml version="1.0" encoding="utf-8"?>
<!-- Generator: Adobe Illustrator 15.0.0, SVG Export Plug-In . SVG Version: 6.00 Build 0)  -->
<!DOCTYPE svg PUBLIC "-//W3C//DTD SVG 1.1//EN" "http://www.w3.org/Graphics/SVG/1.1/DTD/svg11.dtd">
<svg version="1.1" id="Layer_1" xmlns="http://www.w3.org/2000/svg" xmlns:xlink="http://www.w3.org/1999/xlink" x="0px" y="0px"
	 width="24px" height="34px" viewBox="0 0 24 34" enable-background="new 0 0 24 34" xml:space="preserve">
<g>
	<image overflow="visible" opacity="0.33" enable-background="new    " width="27" height="36" xlink:href="3B98E278.png" >
	</image>
	<g>
		<g>
			<g>
				
					<linearGradient id="SVGID_1_" gradientUnits="userSpaceOnUse" x1="13.834" y1="3.2417" x2="13.834" y2="31.2407" gradientTransform="matrix(1 0 0 -1 0 35)">
					<stop  offset="0" style="stop-color:#0071BC"/>
					<stop  offset="1" style="stop-color:#009DDC"/>
				</linearGradient>
				<path fill="url(#SVGID_1_)" d="M23.007,14.786c0.103-0.551,0.161-1.113,0.161-1.693c0-5.152-4.177-9.334-9.332-9.334
					c-5.159,0-9.337,4.182-9.337,9.334c0,0.658,0.069,1.301,0.197,1.914c0.4,1.912,0.617,2.326,1.992,4.896l7.184,11.856
					l6.478-11.221C21.586,18.53,22.6,16.88,23.007,14.786 M13.831,16.274c-1.863,0-3.377-1.51-3.377-3.381
					c0-1.865,1.514-3.377,3.377-3.377c1.868,0,3.383,1.512,3.383,3.377C17.214,14.765,15.699,16.274,13.831,16.274z"/>
				<path fill="#FFFFFF" d="M13.883,32.741L6.261,20.16c-1.388-2.592-1.636-3.054-2.054-5.051c-0.139-0.661-0.208-1.34-0.208-2.017
					c0-5.423,4.412-9.834,9.837-9.834c5.422,0,9.832,4.411,9.832,9.834c0,0.579-0.055,1.162-0.169,1.784
					c-0.426,2.188-1.49,3.919-2.724,5.923 M13.836,4.259c-4.873,0-8.837,3.963-8.837,8.834c0,0.608,0.062,1.218,0.187,1.812
					c0.389,1.855,0.596,2.244,1.943,4.761l6.732,11.111l6.057-10.488c1.236-2.014,2.209-3.593,2.598-5.598
					c0.104-0.557,0.152-1.08,0.152-1.598C22.668,8.222,18.706,4.259,13.836,4.259z M13.831,16.774c-2.138,0-3.877-1.741-3.877-3.881
					c0-2.138,1.739-3.877,3.877-3.877c2.142,0,3.883,1.739,3.883,3.877C17.714,15.033,15.973,16.774,13.831,16.774z M13.831,10.017
					c-1.586,0-2.877,1.291-2.877,2.877c0,1.589,1.291,2.881,2.877,2.881c1.59,0,2.883-1.292,2.883-2.881
					C16.714,11.308,15.421,10.017,13.831,10.017z"/>
			</g>
		</g>
	</g>
</g>
</svg>
